X:387
T: Haocaoge, Dayamizi
N: C1422
O: China, Gansu, kangxian
S: I, 139]
R: Shange, Tiange]
M: 2/4
L: 1/16
K: F
c3dg4 | fgf2fd3 | cc2dg2gf | dd2fg2f2 | f3dc4
c3dg4 | fgf2fd3 | cc2dg2gf | dd2fd2f2 | dfd2c4

